symbols/web/border_style/materialsymbolsoutlined/border_style_wght600grad200_40px.svg

<svg xmlns="http://www.w3.org/2000/svg" height="40" width="40"><path d="M4.417 35.583V4.417h31.166v3.708H8.125v27.458Zm6.875 0v-3.708H15v3.708Zm6.875 0v-3.708h3.708v3.708Zm6.875 0v-3.708h3.666v3.708Zm6.833 0v-3.708h3.708v3.708Zm0-6.875v-3.666h3.708v3.666Zm0-6.833v-3.708h3.708v3.708Zm0-6.875v-3.708h3.708V15Z"/></svg>

<svg xmlns="http://www.w3.org/2000/svg" height="40" width="40"><path d="M25.042 35.583V31.875H28.708V35.583ZM31.875 35.583V31.875H35.583V35.583ZM11.292 35.583V31.875H15V35.583ZM18.167 35.583V31.875H21.875V35.583ZM31.875 28.708V25.042H35.583V28.708ZM31.875 21.875V18.167H35.583V21.875ZM4.417 35.583V4.417H35.583V8.125H8.125V35.583ZM31.875 15V11.292H35.583V15Z"/></svg>
